!!!OTL: 254. Volekh
!!!Genre:	Volekh
!!!Mode:	Altered Dorian
!!!Listening/dance:	dance
!!!One_Mode:	yes
**kern
*I"P1
*clefG2
*k[b-]
*g:dor
*M3/8
*>A
=1
(16cc#LL
16dd)
16dd'
16dd'
16dd'
16dd'JJ
=2
(16cc#LL
16ddJ
8cc#J)
24b-LL
24a
24b-JJ
=3
16cc#LL
(16ee
16dd)
(16cc#
16b-)
(16aJJ
=4
16gLL)
(16a
16b-)
16cc#J
8ddJ
=5
(16cc#XLL
16dd)
16dd'
16dd'
16dd'
16dd'JJ
=6
(16cc#XLL
16ddJ
8cc#J)
24b-LL
24a
24b-JJ
=7
16cc#XLL
(16ee
16dd)
(16cc#
16b-)
(16aJJ
=8
4g)
8r
=9:|!|:
*>B
16dLL
16g
16d
16gJJ
24b-LL
24a
24gJJ
=10
16gLL
16b-
16a
16b-JJ
24ddLL
24cc#X
24b-JJ
=11
16cc#LL
(16ee
16dd)
(16cc#X
16b-)
(16aJJ
=12
16gLL)
(16a
16b-)
(16cc#XJ
8ddJ)
=13
16dLL
16g
16d
16gJJ
24b-LL
24a
24gJJ
=14
16gLL
16b-
16a
16b-JJ
24ddLL
24cc#X
24b-JJ
=15
16cc#XLL
(16ee
16dd)
(16cc#
16b-)
(16aJJ
=16
4g)
8r
=17:|!|:
*>C
8ddL
16eeL
16ff
16gg
16ddJJ
=18
8ggL
16ffL
16eeJ
8ddJ
=19
16cc#LL
(16ee
16dd)
(16cc#X
16b-)
(16aJJ
=20
16gLL)
(16a
16b-)
(16cc#XJ
8ddJ)
=21
8ddL
16eeL
16ff
16gg
16ddJJ
=22
8ggL
16ffL
16eeJ
8ddJ
=23
16cc#LL
(16ee
16dd)
(16cc#X
16b-)
(16aJJ
=24
4g)
8r
=:|!
*-
